packages/calcite-ui-icons/icons/tapestry-32.svg

<?xml version="1.0" encoding="UTF-8"?><svg id="icons" xmlns="http://www.w3.org/2000/svg" viewBox="0 0 32 32"><defs><style>.cls-1{fill:none;}</style></defs><path d="M15.5,28.7998c1.05438,0,2.07544-.13629,3.05957-.36926l-.07629,1.05286c-.96277.20447-1.95959.31659-2.98328.31659-7.89764,0-14.29999-6.40234-14.29999-14.29999S7.60236,1.20001,15.5,1.20001h.00549c7.23153,0,13.3221,5.40468,14.182,12.5849-.33214-.51044-.75756-.94989-1.24785-1.3092-1.02835-4.39837-4.23905-7.96629-8.42585-9.48482-.00315-.00114-.00666-.00068-.00941.00124s-.00438.00507-.00438.00842C11.15479-.19448,2.2002,6.55724,2.2002,15.5c0,7.46095,6.15692,13.2998,13.2998,13.2998ZM30.56445,24.55566c-.11224-1.99365-1.53308-3.55566-3.23401-3.55566h-3.66089c-1.70093,0-3.12177,1.56201-3.23401,3.54834l-.43555,6.12061.98047.07227.43555-6.12793c.08252-1.46533,1.07257-2.61328,2.25354-2.61328h3.66089c1.18097,0,2.17102,1.14795,2.25354,2.62061l.43555,6.10547.98047-.07227-.43555-6.09814ZM22,16.5c0-1.92693,1.56807-3.495,3.495-3.495s3.495,1.56807,3.495,3.495-1.56807,3.495-3.495,3.495-3.495-1.56807-3.495-3.495ZM22.99857,16.5c0,1.37645,1.11949,2.49643,2.49643,2.49643s2.49643-1.11998,2.49643-2.49643-1.11949-2.49643-2.49643-2.49643-2.49643,1.11998-2.49643,2.49643ZM20,16h-5v-5h5v5ZM19,12h-3v3h3v-3ZM11,11h-2v2h2v-2ZM15,10h2v-2h-2v2ZM5,20h-.93555c.25848.65454.57349,1.27863.93555,1.87286v-1.87286ZM5,17h-1.69885c.08386.68536.22107,1.35394.41333,2h1.28552v-2ZM9,16h2v-2h-2v2ZM20,8h-2v2h2v-2ZM23,5.77338c-.36035-.2785-.73669-.53546-1.12714-.77338h-.87286v2h2v-1.22662ZM21,13h.93829c.31213-.31763.67462-.57867,1.06171-.80444v-1.19556h-2v2ZM21,10h2v-2h-2v2ZM24,11.75531c.47656-.15131.974-.25531,1.5-.25531.1712,0,.33313.03363.5.05054v-.55054h-2v.75531ZM26,9.12714c-.23792-.39044-.49487-.76678-.77338-1.12714h-1.22662v2h2v-.87286ZM15,7h2v-2h-2v2ZM5,14h-1.69885c-.0603.49274-.10095.99127-.10095,1.5,0,.16876.01855.33289.02533.5h1.77448v-2ZM20,5h-2v2h2v-2ZM18,25h.80804l.04059-.56006c.02893-.50317.12469-.98553.27307-1.43994h-1.1217v2ZM20,19v-2h-2v2h2ZM20,20h-2v2h1.57251c.1283-.22589.27069-.43939.42749-.64069v-1.35931ZM11,26h-1.87286c.59424.36206,1.21832.67706,1.87286.93555v-.93555ZM14,11h-2v2h2v-2ZM14,14h-2v2h2v-2ZM5,11h-.93555c-.25421.64355-.46448,1.30902-.60773,2h1.54327v-2ZM14,23h-2v2h2v-2ZM14,22h-5v-5h5v5ZM13,18h-3v3h3v-3ZM12,27.28552c.64606.19226,1.31464.32947,2,.41333v-1.69885h-2v1.28552ZM17,17h-2v2h2v-2ZM15,27.77448c.16711.00677.33124.02533.5.02533.50873,0,1.00726-.04065,1.5-.10095v-1.69885h-2v1.77448ZM18,27.54327c.21582-.04474.42474-.10669.63568-.16382l.09991-1.37946h-.7356v1.54327ZM17,20h-2v2h2v-2ZM17,23h-2v2h2v-2ZM14,10h-5v-4.92267c.04199-.02631.08478-.05151.12714-.07733h4.87286v5ZM13,6h-3v3h3v-3ZM8,17h-2v2h2v-2ZM8,20h-2v2h2v-2ZM8,14h-2v2h2v-2ZM11,23h-2v2h2v-2ZM6,23.30286c.50946.61914,1.078,1.18768,1.69714,1.69714h.30286v-2h-2v.30286ZM8,11h-2v2h2v-2ZM8,5.77338c-.48615.37573-.94427.78375-1.3689,1.22662h1.3689v-1.22662ZM8,8h-2v2h2v-2ZM14,3.30115c-.68536.08386-1.35394.22107-2,.41333v.28552h2v-.69885ZM17,3.30115c-.49274-.0603-.99127-.10095-1.5-.10095-.16876,0-.33289.01855-.5.02533v.77448h2v-.69885ZM18,4h1.82416c-.58984-.22266-1.19543-.4129-1.82416-.54327v.54327Z"/><rect class="cls-1" width="32" height="32"/></svg>

<svg xmlns="http://www.w3.org/2000/svg" viewBox="0 0 32 32"><path d="M15.5 28.8a13.25 13.25 0 0 0 3.06-.37l-.077 1.053a14.34 14.34 0 0 1-2.983.317c-7.898 0-14.3-6.402-14.3-14.3S7.602 1.2 15.5 1.2h.005a14.283 14.283 0 0 1 14.182 12.585 5.026 5.026 0 0 0-1.247-1.31 13.355 13.355 0 0 0-8.426-9.484A.01.01 0 0 0 20 3C11.155-.194 2.2 6.557 2.2 15.5c0 7.461 6.157 13.3 13.3 13.3zm15.064-4.244C30.452 22.562 29.031 21 27.33 21h-3.66c-1.701 0-3.122 1.562-3.234 3.548L20 30.67l.98.072.436-6.128C21.499 23.148 22.489 22 23.67 22h3.66c1.181 0 2.171 1.148 2.254 2.62l.436 6.106.98-.072-.436-6.098zM22 16.5c0-1.927 1.568-3.495 3.495-3.495s3.495 1.568 3.495 3.495-1.568 3.495-3.495 3.495S22 18.427 22 16.5zm.999 0c0 1.376 1.12 2.496 2.496 2.496s2.496-1.12 2.496-2.496-1.12-2.496-2.496-2.496-2.496 1.12-2.496 2.496zM20 16h-5v-5h5v5zm-1-4h-3v3h3v-3zm-8-1H9v2h2v-2zm4-1h2V8h-2v2zM5 20h-.936c.259.655.574 1.279.936 1.873V20zm0-3H3.301c.084.685.221 1.354.413 2H5v-2zm4-1h2v-2H9v2zm11-8h-2v2h2V8zm3-2.227c-.36-.278-.737-.535-1.127-.773H21v2h2V5.773zM21 13h.938A5.014 5.014 0 0 1 23 12.196V11h-2v2zm0-3h2V8h-2v2zm3 1.755a4.93 4.93 0 0 1 1.5-.255c.171 0 .333.034.5.05V11h-2v.755zm2-2.628c-.238-.39-.495-.767-.773-1.127H24v2h2v-.873zM15 7h2V5h-2v2zM5 14H3.301c-.06.493-.1.991-.1 1.5 0 .169.018.333.025.5H5v-2zm15-9h-2v2h2V5zm-2 20h.808l.04-.56c.03-.503.125-.986.274-1.44H18v2zm2-6v-2h-2v2h2zm0 1h-2v2h1.573a5.3 5.3 0 0 1 .427-.64V20zm-9 6H9.127c.594.362 1.218.677 1.873.936V26zm3-15h-2v2h2v-2zm0 3h-2v2h2v-2zm-9-3h-.936a12.164 12.164 0 0 0-.607 2H5v-2zm9 12h-2v2h2v-2zm0-1H9v-5h5v5zm-1-4h-3v3h3v-3zm-1 9.286c.646.192 1.315.329 2 .413V26h-2v1.286zM17 17h-2v2h2v-2zm-2 10.774c.167.007.331.026.5.026.509 0 1.007-.04 1.5-.101V26h-2v1.774zm3-.23c.216-.045.425-.107.636-.165l.1-1.379H18v1.543zM17 20h-2v2h2v-2zm0 3h-2v2h2v-2zm-3-13H9V5.077L9.127 5H14v5zm-1-4h-3v3h3V6zM8 17H6v2h2v-2zm0 3H6v2h2v-2zm0-6H6v2h2v-2zm3 9H9v2h2v-2zm-5 .303c.51.619 1.078 1.188 1.697 1.697H8v-2H6v.303zM8 11H6v2h2v-2zm0-5.227A12.45 12.45 0 0 0 6.631 7H8V5.773zM8 8H6v2h2V8zm6-4.699c-.685.084-1.354.221-2 .413V4h2v-.699zm3 0c-.493-.06-.991-.1-1.5-.1-.169 0-.333.018-.5.025V4h2v-.699zM18 4h1.824A12.149 12.149 0 0 0 18 3.457V4z"/><path fill="none" d="M0 0h32v32H0z"/></svg>
